X: 7781
T: Come In From The Rain
R: slide
M: 12/8
K: Dminor
G|A2 D DED|c3 G2 F|E2 C CDC|E2 F G2 B|
A2 D DED|c3 d2 e|f2 d e2 c|(d3 d2):|
e|fed a2 d|fed a2 d|e2 c G2 f|e2 f g2 e|
fed a2 d|fed a2 d|e2 ^c A=B c|(d3 d2) e|
fed a2 d|fed a2 d|e2 c G2 f|e2 f g2 e|
fdf a2 f|g2 e f2 d|e2 ^c ABc|(d3 d2)||

